!!!!SEGMENT: pl-wn--mus-401_zelenski-wladyslaw--zawsze-i-wszedzie.krn
!!!cenid: 18xx:3656
!!!COM: Żeleński, Władysław
!!!COM-rismID: pe41024455
!!!CDT: 1837/07/06-1921/01/23
!!!CNT: Polish
!!!OTL: Zawsze i wszędzie
!!!PDT:
!!!AGN:
!!!SMS-siglum: PL-Wn
!!!SMS-shelfmark: Mus.401
!!!SMS-shelfwork: W
!!!SMS-variant:
!!!SMS-altvar:
!!!NIFC-rismSourceID:
!!!NIFC-islandoraID:
!!!URL-pdf-islandora:
!!!URL-scan: https://polona.pl/item/zawsze-i-wszedzie,NjYxODg4MDI/0/#info:metadata @EN{Scan on Polona} @PL{Skany w portalu Polona}
!!!ONB-nifc:
!!!OMD: Andante maestoso
!!!AIN: 1 piano 1 vox
!!!key: D
**kern	**kern	**dynam	**kern	**text	**dynam
*part2	*part2	*part2	*part1	*part1	*part1
*staff3	*staff2	*	*staff1	*staff1	*
*I"Fortepian	*I"Fortepian	*	*I"Śpiew	*	*
*Ipiano	*Ipiano	*	*Ivox	*	*
*ICklav	*ICklav	*	*ICvox	*	*
*IGacmp	*IGacmp	*	*IGsolo	*	*
*clefF4	*clefG2	*	*clefG2	*	*
*k[f#c#]	*k[f#c#]	*	*k[f#c#]	*	*
*D:	*D:	*	*D:	*	*
*M4/4	*M4/4	*	*M4/4	*	*
*met(c)	*met(c)	*	*met(c)	*	*
=1	=1	=1	=1	=1	=1
*	*^	*	*	*	*
*ped	*	*	*	*	*	*
*xywh-1v:98,3104,6231,1042	*xywh-1v:98,3104,6231,1042	*xywh-1v:98,3104,6231,1042	*	*xywh-1v:87,2243,6268,872	*	*
(>2BB-X/ 2Fn 2B-X	(>4dd:/	2d:\ 2fn:	mf >	1r	.	.
.	8ccn/L	.	.	.	.	.
.	8b-X/J	.	.	.	.	.
*Xped	*	*	*	*	*	*
4FFn/) 4F	4cn/) 4f 4a	2ryy	.	.	.	.
4DD#X/ 4D#X	4c/ 4f#X 4a	.	]	.	.	.
=2	=2	=2	=2	=2	=2	=2
2EE/ 2E	(>4a/	2B\ 2e	<	1r	.	.
.	8g/L	.	.	.	.	.
.	8f#/J	.	[	.	.	.
[<4GGG/ [<4GG	4f#/	[<4B-X\ [<4d	sfz	.	.	.
8GGG/] 8GG]	8e/L)	8B-\] 8d]	>	.	.	.
8r	8E</J	8ryy	.	.	.	.
=3	=3	=3	=3	=3	=3	=3
1AAA 1AA	(>2d:/	1E<: 1G<:	.	2r	.	.
.	2c#/)	.	]	4r	.	.
.	.	.	.	8r	.	.
.	.	.	.	8a/	O	.
*	*clefF4	*	*	*	*	*
=4	=4	=4	=4	=4	=4	=4
!	!	!	!	!LO:TX:a:i:t=dolce	!	!
1DD	(4A/	[2D\ 2F#	pp	(>4a/	nie	.
.	4A#X/	.	.	8g/)	.	.
.	.	.	.	8f#/	mów	.
.	2B/)	2D\]	.	4f#/	o	.
.	.	.	.	4e/	mnie,	.
=5	=5	=5	=5	=5	=5	=5
!	!	!	!	!	!	!LO:HP:a
[<2DD/	(>4B/	[<2E\ [<2G	<	8e/	gdy	<
.	.	.	.	8f#/	mnie	.
.	4d/	.	.	8g/	już	.
.	.	.	[	8b\	nie	[
!!LO:LB:g=original
=-	=-	=-	=-	=-	=-	=-
*xywh-1v:351,4767,5759,1212	*xywh-1v:351,4767,5759,1212	*xywh-1v:351,4767,5759,1212	*	*xywh-1v:377,4147,5819,691	*	*
2DD/]	2c#/)	2E\] 2G]	.	4b\	bę-	.
.	.	.	.	8a/	-dzie,	.
.	.	.	.	8a/	Że	.
=6	=6	=6	=6	=6	=6	=6
*	*	*^	*	*	*	*
*	*	*	*	*	*	*	*
!	!	!	!	!	!LO:TX:a:i:t=espress.	!	!
(<2CCn/ 2Cn	[>2d/	[<2D\ [>2F#	2ryy	sfz	(4dd\	cie-	.
.	.	.	.	.	8f#/)	.	.
.	.	.	.	.	8a/	-bie	.
2BBB/) 2BB	2d\]	2D\]	(<4F#/]	p	4a/	tyl-	.
.	.	.	4G/)	.	8g/	-ko	.
.	.	.	.	.	8b/	go-	.
*	*	*v	*v	*	*	*	*
=7	=7	=7	=7	=7	=7	=7
!	!	!	!LO:HP:t=cresc	!	!	!LO:HP:a:t=cresc poco a poco
4AAA/ 4AA	(>(<4E\ 4c#	2ryy	<	4cc#\	-ry-	<
4GGG/ 4GG	4E#X\ 4B	.	.	8b\	-czą	.
.	.	.	.	8b\	zra-	.
4FFF#/ 4FF#	2A/)	4F#\	.	4a/	-ni-	.
4EEE/ 4EE	.	4G\)	.	8a/	-łem	.
.	.	.	.	8a/	Bo	.
=8	=8	=8	=8	=8	=8	=8
4DDD/ 4DD	(>4A/	(<4F#\	.	(>4a/	ja	.
4GGG/ 4GG	4B/	4Fn\	.	8b\)	.	.
.	.	.	.	8b\	go-	.
2CCn/ 2Cn	4cn/	2E\)	.	4ccn\	-ry-	.
.	4G/)	.	.	4g/	-czy	.
!!LO:LB:g=original
=9	=9	=9	=9	=9	=9	=9
*	*	*^	*	*	*	*
*xywh-1v:263,6429,6127,1771	*xywh-1v:263,6429,6127,1771	*xywh-1v:263,6429,6127,1771	*xywh-1v:263,6429,6127,1771	*	*xywh-1v:387,5871,5722,642	*	*
2CCn/ 2Cn	(>4G/	2E\	2ryy	.	8g/	Kie-	.
.	.	.	.	.	8g/	-lich	.
.	4B-X/)	.	.	.	8b-X\	tak-	.
.	.	.	.	.	8b-\	-że	.
2FFFn/ 2FFn	(>4B-/	(<4C#\	2Fn/	.	4b-\	pi-	.
.	4A/)	4E-X\)	.	.	4a/	-łem	.
*	*	*v	*v	*	*	*	*
=10	=10	=10	=10	=10	=10	=10
*	*	*2\right	*	*	*	*
!	!	!	!	!	!	!LO:DY:a:t=f.
2BBB-X/ 2BB-X	2d:/	2D:\ 2Fn:	f	4dd\	Zaw-	f
.	.	.	.	8ccn\	-sze	.
.	.	.	.	8b-X\	i	.
!LO:SIC:v:s=(4FFn/	!	!	!	!	!	!
(4FF#/	2A/ 2cn	(4F\	.	4a/	wszę-	.
4DD#X/)	.	4F#X\)	.	4a/	-dzie,	.
=11	=11	=11	=11	=11	=11	=11
*	*	*2\left	*	*	*	*
!	!	!	!	!	!	!LO:DY:a
(>2EE/	(4B/	2G\ 2B	p <	4g/	zaw-	p
!	!	!	!	!	!	!LO:HP:a
.	4d/)	.	.	8e/	-sze	<
.	.	.	[	8b\	i	[
!	!	!	!	!	!	!LO:HP:a
2AAA/) 2AA	(4d/	2G\ 2A	>	(>4b\	wszę-	>
.	4c#/)	.	]]	4a/)	.	]]
=12	=12	=12	=12	=12	=12	=12
!	!LO:TX:b:i:t=con gran espress.	!	!	!	!	!
(2DD:/ 2AA: 2D:	(4f#:/	2F#:\ 2A:	.	2.a/	-dzie.	.
.	8e/L	.	.	.	.	.
.	8d/J	.	.	.	.	.
4AA/)	4A/) 4c#	4E\	.	.	.	.
(>4FFn/	(>4A:/ 4c#:	4E-X:\	.	4r	.	.
!!LO:PB:g=original
=13	=13	=13	=13	=13	=13	=13
*xywh-2r:399,1235,5800,1186	*xywh-2r:399,1235,5800,1186	*xywh-2r:399,1235,5800,1186	*	*xywh-2r:417,555,5694,813	*	*
(>2BBB-X:/) 2FFn: 2BB-X:	4d/	2D:\ 2Fn:	.	1r	.	.
.	8cn/L	.	.	.	.	.
.	8B-X/J	.	.	.	.	.
4FFn/)	4A/)	4Cn\ 4F	.	.	.	.
(<4DD#X/	(>4A/	4C\ 4F#X	p	.	.	.
=14	=14	=14	=14	=14	=14	=14
2EE/	(>4A/	[<2BB\ [<2E	.	1r	.	.
.	2G/)	.	<	.	.	.
2DDn/	.	2BB\] 2E]	.	.	.	.
.	8E/L	.	.	.	.	.
.	8B/J)	.	[	.	.	.
=15	=15	=15	=15	=15	=15	=15
1CC#)	(2B/	1E 1G	>	2r	.	.
.	2A/)	.	.	4r	.	.
.	.	.	.	8r	.	.
!	!	!	!	!LO:TX:a:i:t=dolce	!	!
.	.	.	]]	8a/	O	.
=16	=16	=16	=16	=16	=16	=16
*^	*	*	*	*	*	*
!LO:N:vis=2	!	!	!	!	!	!	!
8DD/	2DD\	(4A/	2F#\	pp	4a/	nie	.
4D/	.	.	.	.	.	.	.
.	.	4A#X/	.	<	8g/	.	.
8D/	.	.	.	.	8f#/	mów	.
!LO:N:vis=2	!	!	!	!	!	!	!
8DD/	2DD\	4B/	2G\	.	4f#/	o	.
4D/	.	.	.	.	.	.	.
.	.	4e/)	.	[	4e/	mnie,	.
8D/	.	.	.	.	.	.	.
*	*	*clefG2	*	*	*	*	*
=17	=17	=17	=17	=17	=17	=17	=17
!LO:N:vis=2	!	!LO:TX:b:i:t=poco espr.	!	!	!	!	!
8DD/	2DD\	(4g/	2G\ 2B	.	8e/	gdy	.
4D/	.	.	.	.	8f#/	mnie	.
.	.	4e/	.	.	8g/	już	.
8D/	.	.	.	.	8b\	nie	.
!LO:N:vis=2	!	!	!	!	!	!	!
8DD/	2DD\	4d/	2E</ 2G<	.	4b\	bę-	.
4D/	.	.	.	.	.	.	.
.	.	4c#/	.	.	8a/	-dzie	.
8D/	.	.	.	.	8a/	Że	.
*	*	*v	*v	*	*	*	*
!!LO:LB:g=original
=18	=18	=18	=18	=18	=18	=18
*xywh-2r:313,3053,5589,1167	*xywh-2r:313,3053,5589,1167	*xywh-2r:313,3053,5589,1167	*	*xywh-2r:284,2335,5828,832	*	*
!LO:N:vis=2	!	!	!LO:HP:t=cresc poco a poco	!	!	!LO:HP:a:t=cresc. poco a poco e con affetto.
8CCn/	2CCn\	4D</) 4d	<	(4dd\	to-	<
4Cn/	.	.	.	.	.	.
.	.	(>4D</ 4f#	.	8f#/)	.	.
8C/	.	.	.	8a/	-bie	.
!LO:N:vis=2	!	!	!	!	!	!
8BBB/	2BBB\	4A</ 4a	.	4a/	tyl-	.
4BB\	.	.	.	.	.	.
.	.	4G</) 4g	.	8g/	-ko	.
8BB\	.	.	.	8b\	los	.
=19	=19	=19	=19	=19	=19	=19
*	*	*^	*	*	*	*
*	*	*	*^	*	*	*	*
!LO:N:vis=2	!	!	!	!	!	!	!	!
8EE/	2EE\	(>4G</ 4g	2ryy	2.ryy	.	4cc#\	ży-	.
4E\	.	.	.	.	.	.	.	.
.	.	4G#X</ 4g#X	.	.	.	8b\	-cia	.
8EE#X/ 8E#X	.	.	.	.	.	8b\	po-	.
8FF#/	4.FF#\	2a/)	4A</	.	.	4a/	-psu-	.
4F#\	.	.	.	.	.	.	.	.
.	.	.	8B</L	4gn\	.	8a/	-łem	.
8EEn\ 8En	8ryy	.	8c#</J	.	.	8a/	Bo	.
*	*	*	*v	*v	*	*	*	*
=20	=20	=20	=20	=20	=20	=20	=20
8DD/	4.DD\	(>4f#/ 4a	2d\	.	(>4a/	wła-	.
4D/	.	.	.	.	.	.	.
.	.	4fn/ 4b	.	.	8b\)	.	.
8GG/	8ryy	.	.	.	8dd\	-sną	.
!LO:N:vis=2	!	!	!	!	!	!	!
8CCn/	2CCn\	4ccn/	2cn\ 2e	.	8ee\L	do-	.
4Cn/	.	.	.	.	8dd\J	.	.
.	.	4g/)	.	.	8ccn\	-lę	.
8C/	.	.	.	.	8a/	ja	.
=21	=21	=21	=21	=21	=21	=21	=21
!LO:N:vis=2	!	!	!	!	!	!	!
8CCn/	2CCn\	(>2e/ 2g	4cn\	.	4g/	tak-	.
4Cn/	.	.	.	.	.	.	.
.	.	.	4B-X\	.	8a/	-że	.
8C/	.	.	.	.	8b-X\	za-	.
!LO:N:vis=2	!	!	!	!	!	!	!
8FFn/	2FFn\	4fn/	2A\	.	4ccn\	-tru-	.
4E-X\	.	.	.	.	.	.	.
.	.	4c#X/)	.	.	4fn/	-łem	.
8E-\	.	.	.	.	.	.	.
!!LO:LB:g=original
=22	=22	=22	=22	=22	=22	=22	=22
*xywh-2r:294,4718,5752,1234	*xywh-2r:294,4718,5752,1234	*xywh-2r:294,4718,5752,1234	*xywh-2r:294,4718,5752,1234	*	*xywh-2r:284,4048,5982,669	*	*
!LO:N:vis=2	!	!	!	!	!	!	!LO:DY:a
8BBB-X/	2BBB-\	(>4B-X/ 4d	2ryy	.	4dd\	Zaw-	f
4BB-X/	.	.	.	<	.	.	.
.	.	4G/ 4en	.	.	8ccn\	-sze	.
8BB-/	.	.	.	.	8b-X\	i	.
8FFn/	4.FFn\	4fn/	2A\	.	4a/	wszę-	.
4C#/	.	.	.	.	.	.	.
.	.	4f#X/)	.	[	4a/	-dzie,	.
8DD#X/ 8C#	8ryy	.	.	.	.	.	.
=23	=23	=23	=23	=23	=23	=23	=23
!	!	!	!	!	!	!	!LO:HP:a
!LO:N:vis=2	!	!	!	!	!	!	!LO:DY:a
8EE/	2EE\	(4g/	2G\ 2Bn	p	4g/	zaw-	p <
4BB/	.	.	.	.	.	.	.
.	.	4e/)	.	.	8e/	-sze	.
8BB/	.	.	.	.	8b\	i	[
!LO:N:vis=2	!	!	!	!	!	!	!
8AAA/	2AAA\	(4d/	2E/ 2G	.	(4b\	wszę-	.
4AA/	.	.	.	.	.	.	.
!	!	!	!	!	!	!	!LO:HP:a
.	.	4c#/)	.	.	4a/)	.	>]
8AA/	.	.	.	.	.	.	.
*v	*v	*	*	*	*	*	*
*	*clefF4	*	*	*	*	*
=24	=24	=24	=24	=24	=24	=24
!	!LO:TX:b:i:t=espress.	!	!	!	!	!
(>2DD:/ 2AA: 2D:	(4f#/	(2F#\ 2A	.	2.a/	-dzie.	.
.	8e/L	.	.	.	.	.
.	8d/J)	.	.	.	.	.
4AA/)	4A/ 4c#	4E\)	.	.	.	.
(<4FFn/	4A:/ 4c#:	4E-X:\	.	4r	.	.
=25	=25	=25	=25	=25	=25	=25
2BBB-X/ 2FFn 2BB-X	(>4d:/	(<2D:\ 2Fn:	>	1r	.	.
.	8cn/L	.	.	.	.	.
.	8B-X/J)	.	.	.	.	.
4FF/)	4F/ 4A	4Cn\)	]	.	.	.
4DD#X/	4F#X/ 4A	4C\	p	.	.	.
=26	=26	=26	=26	=26	=26	=26
[2EE/	4A/	[<2BB\ [<2E	<	1r	.	.
.	8G/L	.	.	.	.	.
.	8F#/J	.	.	.	.	.
4EE/]	4E/] 4G	4BB\]	.	.	.	.
4r	(<8E/L	4ryy	[	.	.	.
.	8d/J)	.	.	.	.	.
!!LO:LB:g=original
=27	=27	=27	=27	=27	=27	=27
*xywh-2r:83,6451,6068,1464	*xywh-2r:83,6451,6068,1464	*xywh-2r:83,6451,6068,1464	*	*xywh-2r:351,5848,5675,708	*	*
1AAA 1AA	(>2d:/	1E: 1G:	>	1r	.	.
.	2c#/)	.	]	.	.	.
*	*v	*v	*	*	*	*
=28	=28	=28	=28	=28	=28
4DD/	8D\L 8F# 8d	pp	1r	.	.
.	8D\ 8d	.	.	.	.
4r	8D\ 8d	.	.	.	.
.	8D\J 8d	.	.	.	.
2r	8D\L 8d	.	.	.	.
.	8D\ 8d	.	.	.	.
.	8D\ 8d	.	.	.	.
.	8D\J 8d	.	.	.	.
=29	=29	=29	=29	=29	=29
1r	8D\L 8d	.	4r	.	.
.	8D\ 8d	.	.	.	.
.	8D\ 8d	<	2fn/	A-	.
.	8D\J 8d	.	.	.	.
.	8D-X\L 8d-X	.	.	.	.
.	8D-\ 8d-	.	.	.	.
.	8D-\ 8d-	.	8f/	-le	.
.	8D-\J 8d-	[[	8gn/	mów	.
=30	=30	=30	=30	=30	=30
*ped	*	*	*	*	*
!LO:TX:a:i:t=con Ped	!	!	!	!	!
1FFn	8Cn\L 8A 8cn	.	4a/	o	.
.	8C\ 8A 8c	.	.	.	.
.	8C\ 8A 8c	.	4a/	mnie	.
.	8C\J 8A 8c	.	.	.	.
.	8D\L 8G 8B	.	8a/	gdy	.
.	8D\ 8G 8B	.	8g/	mnie	.
.	8D\ 8G 8B	.	8fn/	już	.
.	8D\J 8G 8B	.	8a/	nie	.
=31	=31	=31	=31	=31	=31
2EE/	8Cn\L 8G 8cn	.	4g/	bę-	.
.	8C\ 8G 8c	.	.	.	.
.	8C\ 8G 8c	.	8cn/	-dzie,	.
.	8C\J 8G 8c-X	.	8b-X\	Że	.
!	!	!	!	!	!LO:HP:a
4FFn/	8C\L 8A	<	(4a/	Bóg	<
.	8C\ 8A	.	.	.	.
4DD/	8Fn\ 8A 8Bn	.	8bn\)	.	.
.	8F\J 8A 8B	[	8b\	jest	[[
!!LO:PB:g=original
=32	=32	=32	=32	=32	=32
*xywh-2v:346,1317,5777,1231	*xywh-2v:346,1317,5777,1231	*	*xywh-2v:336,525,5891,868	*	*
(2AAA/ 2AA	8E\L 8A 8cn	.	4ccn\	do-	.
.	8E\ 8A 8c	.	.	.	.
.	8E\ 8A 8c	.	4e/	-bry,	.
.	8E\J 8A 8c	.	.	.	.
2DD/)	8Fn\L 8A 8d	.	8fn/	Że	.
.	8F\ 8A 8d	.	8g/	mnie	.
.	8F\ 8A 8d	.	8a/	scho-	.
.	8F\J 8A 8d	.	8dd\	-wał	.
=33	=33	=33	=33	=33	=33
(<2.AAA/ 2.AA	8E\L 8A 8cn	.	2.ccn\	w_gro-	.
.	8E\ 8A 8c	.	.	.	.
.	8E\ 8A 8c	.	.	.	.
.	8E\J 8A 8c	.	.	.	.
.	8E\L 8A 8c	.	.	.	.
.	8E\ 8A 8c	.	.	.	.
4GG/	8E\ 8B-X 8c#X	.	8b-X\	-bie	.
.	8E\J 8B- 8c#	.	8b-\	Bo	.
=34	=34	=34	=34	=34	=34
4FFn/	8D\L 8A 8d	.	(>4a/	by-	.
.	8D\ 8A 8d	.	.	.	.
4FF-X/	8A-X\ 8Bn 8d	.	8bn\)	.	.
.	8A-\J 8B 8d	.	8b\	-łem	.
[>2EE-X/	8A-\L 8cn 8e-X	.	4ccn\	so-	.
.	8A-\ 8c 8e-	.	.	.	.
.	8A-\ 8c 8en	.	8b-X\	-bie	.
.	8A-\J 8c 8e	.	8a-X/	nie-	.
*	*clefG2	*	*	*	*
=35	=35	=35	=35	=35	=35
2EE-/]	8A-X/L 8d-X 8fn	.	4dd-X\	-szczę-	.
.	8A-/ 8d- 8f	.	.	.	.
.	8A-/ 8d- 8e-X	.	8ccn\	-sny	.
.	8A-/J 8d- 8e-	.	8b-X\	i	.
4AAA-X/	8G-X/L 8cn 8e-	.	4ee-X\	to-	.
.	8G-/ 8c 8e-	.	.	.	.
4AA-X/)	8G-X/ 8c 8en	.	4a-X/	-bie	.
.	8G-/J 8c 8e	.	.	.	.
!!LO:LB:g=original
=36	=36	=36	=36	=36	=36
*xywh-2v:403,3074,5634,1165	*xywh-2v:403,3074,5634,1165	*	*xywh-2v:403,2396,5806,678	*	*
(<2DD-X/	8Fn/L 8A-X 8fn	.	4ffn\	Za-	.
.	8F/ 8A- 8f	.	.	.	.
.	8F/ 8A- 8e-X	.	8ee-X\	-wsze	.
!	!LO:SIC:v:n=1:s=8d-	!	!	!	!
.	8F/J 8A- 8d	.	8dd-X\	i	.
4AAA-X/ 4AA-X	8E-X/L 8A- 8cn	.	4ccn\	wszę-	.
.	8E-/ 8A- 8c	.	.	.	.
4GGG/) 4GG	8E-/ 8A- 8c	.	4cc\	-dzie,	.
.	8E-/J 8A- 8c	.	.	.	.
*	*clefF4	*	*	*	*
=37	=37	=37	=37	=37	=37
*	*^	*	*	*	*
(4FFF#X/ 4FF#X	2ryy	8E-X\L 8A-X 8cn	.	4ccn\	za-	.
.	.	8E-\ 8A- 8c	.	.	.	.
2GGG/ 2GG	.	8Dn\ 8G 8Bn	.	8bn\	-wsze	.
.	.	(>8G\J	.	8g/	i	.
.	[>2B-X/	8B-\L)	.	[2b-X\	wszę-	.
.	.	8Fn\	.	.	.	.
4GGG#X/ 4GG#X	.	8En\	.	.	.	.
.	.	8D\J	.	.	.	.
=38	=38	=38	=38	=38	=38	=38
*ped	*	*	*	*	*	*
1AAA) 1AA	4B-X/]	16B-X\LL	.	4b-\]	.	.
.	.	(>16C#X\	<	.	.	.
.	.	16E\	.	.	.	.
.	.	16G\JJ	.	.	.	.
.	4A/	16A\LL	.	2a/	-dzie	.
.	.	16E\	.	.	.	.
.	.	16G\	.	.	.	.
.	.	16c#\JJ	.	.	.	.
.	4d/	16d\LL	.	.	.	.
.	.	16F#\	.	.	.	.
.	.	16A\	.	.	.	.
.	.	16d\JJ	.	.	.	.
.	4e/	16e\LL	.	4r	.	.
*Xped	*	*	*	*	*	*
.	.	16G\	.	.	.	.
.	.	16c#\)	[	.	.	.
.	.	16e\JJ	.	.	.	.
=39	=39	=39	=39	=39	=39	=39
*^	*	*	*	*	*	*
!LO:N:vis=2	!	!	!LO:N:vis=2	!	!LO:TX:a:i:t=piu dolce	!	!
8DD/	2DD\	2f#/	(>16f#\LL	pp	4a/	A-	.
.	.	.	16F#\	.	.	.	.
4D/	.	.	16A\	.	.	.	.
.	.	.	16d\JJ	.	.	.	.
.	.	.	16f#\LL	.	8g/	-le	.
.	.	.	16d\	.	.	.	.
8D/	.	.	16A\)	.	8f#/	mów	.
.	.	.	16F#\JJ	.	.	.	.
!LO:N:vis=2	!	!	!	!	!	!	!
8DD/	2DD\	2ryy	16r	.	4f#/	o	.
.	.	.	(>16G\LL	.	.	.	.
4D/	.	.	16B\	.	.	.	.
.	.	.	16f#\JJ	.	.	.	.
.	.	.	16e\LL	.	4e/	mnie	.
.	.	.	16B\	.	.	.	.
8D/	.	.	16G\	.	.	.	.
.	.	.	16B\JJ)	.	.	.	.
!!LO:LB:g=original
*	*	*clefG2	*	*	*	*	*
=40	=40	=40	=40	=40	=40	=40	=40
*xywh-2v:394,4832,5872,1088	*xywh-2v:394,4832,5872,1088	*xywh-2v:394,4832,5872,1088	*xywh-2v:394,4832,5872,1088	*	*xywh-2v:279,4125,5930,773	*	*
!LO:N:vis=2	!	!	!	!	!	!	!
8DD/	2DD\	(>4g/	16g\LL	.	8e/	gdy	<
.	.	.	16B\	.	.	.	.
4D/	.	.	16G\	.	8f#/	mnie	.
.	.	.	16B\JJ	.	.	.	.
.	.	4e/	16e\LL	.	8g/	już	.
.	.	.	16B\	.	.	.	.
8D/	.	.	16G\	.	8b\	nie	.
.	.	.	16B\JJ	.	.	.	.
!LO:N:vis=2	!	!LO:TX:t=P:problem=mixed beam	!	!	!	!	!
8DD/	2DD\	4d/	16d\LL	.	4b\	bę-	[
.	.	.	16G</	.	.	.	.
4D\	.	.	16E</	.	.	.	.
.	.	.	16G</JJ	.	.	.	.
!	!	!LO:TX:t=P:problem=mixed beam	!	!	!	!	!
.	.	4c#/)	16c#\LL	.	8a/	-dzie,	.
.	.	.	16G</	.	.	.	.
8D\	.	.	16E</	.	8a/	żem	.
.	.	.	16G</JJ	.	.	.	.
=41	=41	=41	=41	=41	=41	=41	=41
!	!	!LO:TX:t=P:problem=mixed beam	!	!	!LO:TX:b:i:t=espress.	!	!
8DD/	4.DD\	4d/	16d\LL	.	(>4dd\	żył	.
.	.	.	16F#</	.	.	.	.
4D\	.	.	16A</	.	.	.	.
.	.	.	16d\JJ	.	.	.	.
!	!	!LO:TX:t=P:problem=mixed beam	!	!	!	!	!
.	.	4f#/	16f#\LL	.	8f#/)	.	.
.	.	.	16A</	.	.	.	.
8CCn/ 8Cn	8ryy	.	16d\	.	8a/	na	.
.	.	.	16f#\JJ	.	.	.	.
!LO:N:vis=2	!	!LO:TX:t=P:problem=mixed beam	!	!	!	!	!
8BBB/	2BBB\	4a/	16a\LL	.	4a/	świe-	.
.	.	.	16A</	.	.	.	.
4BB\	.	.	16d\	.	.	.	.
.	.	.	16f#\JJ	.	.	.	.
!	!	!LO:TX:t=P:problem=mixed beam	!	!	!	!	!
.	.	4g/	16g\LL	.	4g/	-cie	.
.	.	.	16G</	.	.	.	.
8BB\	.	.	16d\	.	.	.	.
.	.	.	16g\JJ	.	.	.	.
=42	=42	=42	=42	=42	=42	=42	=42
8EE/	4.EE\	4g/	16g\LL	.	8b\	dzi-	.
.	.	.	16G\	.	.	.	.
4E/	.	.	16d\	.	8b\	-kim	.
.	.	.	16g\JJ	.	.	.	.
.	.	4g#X/	16g#\LL	.	8.cc#\	ser-	.
.	.	.	16G#X\	.	.	.	.
8EE#X/ 8E#X	8ryy	.	16d\	.	.	.	.
.	.	.	16g#\JJ	.	16b\	-ca	.
!	!	!	!LO:N:vis=2	!	!	!	!LO:HP:a
8FF#/	4.FF#\	[>2a/	16a\LL	.	4a/	sza-	>
.	.	.	16A\	.	.	.	.
4F#/	.	.	16d\	.	.	.	.
.	.	.	16f#\JJ	.	.	.	.
.	.	.	16gn\LL	.	8a/	-łem	]
.	.	.	16A\	.	.	.	.
!	!	!	!	!	!	!	!LO:DY:a
8EEn/ 8En	8ryy	.	16c#\	.	8a/	Bo	p
.	.	.	16g\JJ	.	.	.	.
!!LO:LB:g=original
=43	=43	=43	=43	=43	=43	=43	=43
*xywh-2v:336,6531,6111,1623	*xywh-2v:336,6531,6111,1623	*xywh-2v:336,6531,6111,1623	*xywh-2v:336,6531,6111,1623	*	*xywh-2v:327,5815,5863,763	*	*
8DD/	4DD\	4a/]	16a\LL	.	(>4a/	z_ser-	.
.	.	.	16A\	.	.	.	.
4D/	.	.	16d\	.	.	.	.
.	.	.	16f#\JJ	.	.	.	.
.	4ryy	4b/	16b\LL	.	8b\)	.	.
.	.	.	16d\	.	.	.	.
8GG/	.	.	16fn\	.	8b\	-ca	.
.	.	.	16g\JJ	.	.	.	.
!LO:N:vis=2	!	!	!	!	!	!	!
8CCn/	2CCn\	4ccn/	16ccn\LL	.	4ccn\	cie-	.
.	.	.	16G\	.	.	.	.
4Cn/	.	.	16cn\	.	.	.	.
.	.	.	16e\JJ	.	.	.	.
.	.	[>4g^/	16g\LL	.	8g/	-bie	.
.	.	.	16G\	.	.	.	.
8C/	.	.	16c\	.	8g/	choć	.
.	.	.	16e\JJ	.	.	.	.
=44	=44	=44	=44	=44	=44	=44	=44
!LO:N:vis=2	!	!	!	!	!	!	!
8CCn/	2CCn\	4g/]	16g\LL	.	4g/	gorz-	.
.	.	.	16G\	.	.	.	.
4Cn/	.	.	16cn\	.	.	.	.
.	.	.	16e-X\JJ	.	.	.	.
.	.	8.b-X/L	16b-\LL	.	8b-X\	-ko	.
.	.	.	16B-X\	.	.	.	.
8C/	.	.	16e-\	.	8b-\	ko-	.
.	.	16b-/Jk	16b-\JJ	.	.	.	.
!LO:N:vis=2	!	!	!	!	!	!	!
8FFFn/	2FFFn\	4b-/	16b-\LL	.	4b-\	-cha-	.
.	.	.	16B-\	.	.	.	.
4FFn/	.	.	16e-\	.	.	.	.
.	.	.	16fn\JJ	.	.	.	.
.	.	4a/	16a\LL	.	4a/	-łem	.
.	.	.	16A\	.	.	.	.
8FF/	.	.	16e-\	.	.	.	.
.	.	.	16f\JJ	.	.	.	.
=45	=45	=45	=45	=45	=45	=45	=45
!LO:N:vis=2	!	!LO:TX:t=P:problem=mixed beam	!	!	!	!	!
8BBB-X/	2BBB-X\	4dd/	16dd\LL	.	4dd\	Zaw-	.
.	.	.	16Fn</	.	.	.	.
4BB-X/	.	.	16B-X</	.	.	.	.
.	.	.	16d\JJ	.	.	.	.
.	.	8.fn/L	16fn\LL	.	8ccn\	-sze	.
.	.	.	16B-X\	.	.	.	.
8BB-/	.	.	16d\	.	8b-X\	i	.
.	.	16g/Jk	16g\JJ	.	.	.	.
!	!	!	!LO:N:vis=2	!	!	!	!
8FFn/	4.FFn\	2a/	16a\LL	.	4ffn\	wszę-	.
.	.	.	16A\	.	.	.	.
4Fn\	.	.	16cn\	.	.	.	.
.	.	.	16f\JJ	.	.	.	.
.	.	.	16a\LL	.	4a/	-dzie	.
.	.	.	16A\	.	.	.	.
8DD#X/ 8D#X	8ryy	.	16c\	.	.	.	.
.	.	.	16f#X\JJ	.	.	.	.
!!LO:PB:g=original
=46	=46	=46	=46	=46	=46	=46	=46
*xywh-3r:332,1350,5667,1072	*xywh-3r:332,1350,5667,1072	*xywh-3r:332,1350,5667,1072	*xywh-3r:332,1350,5667,1072	*	*xywh-3r:342,527,5562,899	*	*
!	!	!	!	!	!	!	!LO:DY:a
8EE/	4.EE\	4g/	16g\LL	.	4g/	Zaw-	p
.	.	.	16G\	.	.	.	.
4E/	.	.	16Bn\	p	.	.	.
.	.	.	16e\JJ	.	.	.	.
.	.	[>4b^/	16b\LL	.	8e/	-sze	.
.	.	.	16B\	.	.	.	.
8DD/ 8D	8ryy	.	16e\	.	8b\	i	.
.	.	.	16g\JJ	.	.	.	.
!LO:N:vis=2	!	!	!	!	!	!	!
8CC#/	2CC#\	4b/]	16b\LL	.	4b\	wszę-	.
.	.	.	16B\	.	.	.	.
4C#/	.	.	16e\	.	.	.	.
.	.	.	16g\JJ	.	.	.	.
.	.	(4a/	16a\LL	.	8a/	-dzie,	.
.	.	.	16A\	.	.	.	.
8C#/	.	.	16e\	.	8a/	Bo	.
.	.	.	16g\JJ	.	.	.	.
=47	=47	=47	=47	=47	=47	=47	=47
!	!	!	!	!	!	!	!LO:HP:a:t=cresc molto
8DD/	4.DD\	4f#/)	16f#\LL	.	(>4a/	cie-	<
.	.	.	16A\	<	.	.	.
4D/	.	.	16d\	.	.	.	.
.	.	.	16f#\JJ	.	.	.	.
.	.	(4b/	16b\LL	.	8b\)	.	.
.	.	.	16d\	.	.	.	.
8FFn/ 8Fn	8ryy	.	16a-X\	.	8b\	-bie	.
.	.	.	16b\JJ	.	.	.	.
8EE-X/	4.EE-\	4ccn/	16ccn\LL	.	4ccn\	z_ser-	.
.	.	.	16cn\	.	.	.	.
4E-X/	.	.	16a-\	.	.	.	.
.	.	.	16cc\JJ	.	.	.	.
.	.	4dd/	16dd\LL	.	8dd\	-ca	.
.	.	.	16d\	.	.	.	.
8BBB/ 8BB	8ryy	.	16an\	.	8dd\	choć	.
.	.	.	16dd\JJ	.	.	.	.
=48	=48	=48	=48	=48	=48	=48	=48
!LO:N:vis=2	!	!LO:TX:t=P:problem=mixed beam	!	!	!LO:TX:a:i:t=con espress.	!	!
8CCn/	2CCn\	4ee-X/)	16ee-\LL	.	4ee-X\	gorz-	.
.	.	.	16F#</	.	.	.	.
4Cn\	.	.	16A-X</	.	.	.	.
.	.	.	16e-X\JJ	.	.	.	.
!	!	!LO:TX:t=P:problem=mixed beam	!	!	!	!	!
.	.	(4g-X/	16g-X\LL	.	8a-X/	-ko	.
.	.	.	16e-\	.	.	.	.
8C\	.	.	16A-</	.	8a-/	ko-	.
.	.	.	16G</JJ	.	.	.	.
!LO:N:vis=2	!	!LO:TX:t=P:problem=mixed beam	!	!	!	!	!
8DD-X/	2DD-X\	4fn/)	16fn\LL	.	(>4ffn\	-cha-	.
.	.	.	16Fny</	.	.	.	.
4D-X\	.	.	16A-</	.	.	.	.
.	.	.	16f\JJ	.	.	.	.
!	!	!LO:TX:t=P:problem=mixed beam	!	!	!	!	!
.	.	8.e-/L	16e-\LL	.	8.ee-X\)	.	.
.	.	.	16F</	.	.	.	.
8D-\	.	.	16A-</	.	.	.	.
.	.	16d-X/Jk	16d-\JJ	.	16dd-X\	-łem	.
*v	*v	*	*	*	*	*	*
!!LO:LB:g=original
*	*clefF4	*	*	*	*	*
=49	=49	=49	=49	=49	=49	=49
*xywh-3r:217,3035,5849,1234	*xywh-3r:217,3035,5849,1234	*xywh-3r:217,3035,5849,1234	*	*xywh-3r:237,2355,5801,804	*	*
*ped	*	*	*	*	*	*
!	!	!LO:N:vis=2	!	!	!	!LO:HP:a
4r	2cn/	16cn\LL	pp	2ccn\	zaw-	>
.	.	16Cn\	.	.	.	.
.	.	16E-X\	.	.	.	.
.	.	16A-X\JJ	.	.	.	.
(<4FFF#X/ 4FF#X	.	16c\LL	.	.	.	.
.	.	16A-\	.	.	.	.
*Xped	*	*	*	*	*	*
.	.	16E-\	.	.	.	.
.	.	16C\JJ	.	.	.	.
4GGG/ 4GG	4B/	16B\LL	.	4b\	-sze	.
.	.	16G\	.	.	.	.
.	.	16D\	.	.	.	.
.	.	16BB\JJ	.	.	.	.
4GGG#X/) 4GG#X	4B-X/	16B-\LL	.	4b-X\	i	]
.	.	16Fn\	.	.	.	.
.	.	16D\	.	.	.	.
.	.	16BB-X\JJ	.	.	.	.
=50	=50	=50	=50	=50	=50	=50
*^	*	*	*	*	*	*
!	!	!	!LO:N:vis=2.	!	!	!	!LO:DY:a
4AA/	2.AAA\	2.An/	16An\LL	.	(>2a/	wszę-	p
.	.	.	16AA\	.	.	.	.
.	.	.	16D\	.	.	.	.
.	.	.	16F#X\JJ	.	.	.	.
2ryy	.	.	16A\LL	.	.	.	.
.	.	.	16D\	.	.	.	.
.	.	.	16F#\	.	.	.	.
.	.	.	16A\JJ	.	.	.	.
.	.	.	16d\LL	.	(>4f#/)	.	.
.	.	.	16F#\	.	.	.	.
.	.	.	16A\	.	.	.	.
.	.	.	16d\JJ	.	.	.	.
*	*	*clefG2	*	*	*	*	*
4AA/	4ryy	4f#/	16f#\LL	.	4ccn\)	-dzie,	.
.	.	.	16cn\	.	.	.	.
.	.	.	16d#X\	.	.	.	.
.	.	.	16f#\JJ	.	.	.	.
*v	*v	*	*	*	*	*	*
=51	=51	=51	=51	=51	=51	=51
!	!	!	!	!	!	!LO:HP:a
2AAA/	4g/	16g\LL	.	4b\	Zaw-	<
.	.	16G\	.	.	.	.
.	.	16B\	.	.	.	.
.	.	16g\JJ	.	.	.	.
.	4e/	16e\LL	.	8g/	-sze	.
.	.	16G\	.	.	.	.
.	.	16B\	.	8ee\	i	[
.	.	16e\JJ	.	.	.	.
!	!LO:TX:t=P:problem=mixed beam	!	!	!	!	!LO:HP:a
2AA\	4d/	16d\LL	.	(4dd\	wszę-	>
.	.	16E</	.	.	.	.
.	.	16G</	.	.	.	.
.	.	16d\JJ	.	.	.	.
!	!LO:TX:t=P:problem=mixed beam	!	!	!	!	!
.	4c#/	16c#\LL	.	4cc#\)	.	]]
.	.	16E</	.	.	.	.
.	.	16G</	.	.	.	.
.	.	16c#\JJ	.	.	.	.
!!LO:LB:g=original
=52	=52	=52	=52	=52	=52	=52
*xywh-3r:284,4768,5906,1302	*xywh-3r:284,4768,5906,1302	*xywh-3r:284,4768,5906,1302	*	*xywh-3r:189,4222,5973,536	*	*
!	!LO:TX:b:i:t=espr.	!	!	!	!	!
&(<2DD:\ 2AA:	4f#:/	(>2D<: 2F#<:/ [>2A<:	.	2dd\	-dzie	.
.	8e/L	.	.	.	.	.
.	8d/J	.	.	.	.	.
4AA\&)	4c#/	4E</) 4A<]	.	2r	.	.
4FFn\	4c#/	4E-X</ 4A<	.	.	.	.
*	*clefF4	*	*	*	*	*
=53	=53	=53	=53	=53	=53	=53
(<2BBB-X:/ 2FFn: 2BB-X:	(>4d:/	2D:\ 2Fn:	>	1r	.	.
.	8cn/L	.	.	.	.	.
.	8B-X/J)	.	.	.	.	.
4FF/)	4F/ 4A	4Cn\	]	.	.	.
(<4DD#X/	4F#X/ [4A	4C\	.	.	.	.
=54	=54	=54	=54	=54	=54	=54
[<2EE/)	4A/]	[<2BB\ [<2E	.	1r	.	.
.	8G/L	.	.	.	.	.
.	8F#/J	.	.	.	.	.
4EE/]	4E/] 4G	4BB\]	>	.	.	.
4r	8E/L	4ryy	.	.	.	.
.	8d/J	.	]	.	.	.
*	*v	*v	*	*	*	*
=55	=55	=55	=55	=55	=55
16r	4F#\ 4d	ppp	1r	.	.
*ped	*	*	*	*	*
(>16DD/LL	.	.	.	.	.
16AA/	.	.	.	.	.
16D/JJ	.	.	.	.	.
*	*clefG2	*	*	*	*
16F#\)	16r	.	.	.	.
16r	(<16A/LL	.	.	.	.
8r	16d/	.	.	.	.
.	16f#/JJ	.	.	.	.
4r	16a/LL	.	.	.	.
.	16f#/	.	.	.	.
.	16d/	.	.	.	.
.	16B/JJ)	.	.	.	.
16r	16A/	.	.	.	.
(>16F#\LL	16r	.	.	.	.
16D\	8r	.	.	.	.
16AA\JJ	.	.	.	.	.
=56	=56	=56	=56	=56	=56
8DD/)	2r	.	1r;>	.	.
8r	.	.	.	.	.
4r	.	.	.	.	.
2DD:/ 2AA: 2D:	2F#;>:/ 2A: 2d: 2f#:	.	.	.	.
*Xped	*	*	*	*	*
==	==	==	==	==	==
*-	*-	*-	*-	*-	*-
!!!system-decoration: s1,{(s2,s3)}
!!!RDF**kern: < = below
!!!RDF**kern: > = above
!!!ENC: Andrzej Gręziak
!!!END: 2022-02-18
!!!ENC: Marta Chmielewska
!!!END: 2022-02-19
!!!IIIF: https://polona.pl/iiif/item/NjYxODg4MDI/manifest.json
!!!ENC-iiif: Jan Barakat
!!!END-iiif: 2022-08-19
